remix/Business/global-fill.svg

<svg viewBox="0 0 24 24" fill="currentColor" xmlns="http://www.w3.org/2000/svg"><path d="M2.04932 12.9999H7.52725C7.70624 16.2688 8.7574 19.3053 10.452 21.8809C5.98761 21.1871 2.5001 17.5402 2.04932 12.9999ZM2.04932 10.9999C2.5001 6.45968 5.98761 2.81276 10.452 2.11902C8.7574 4.69456 7.70624 7.73111 7.52725 10.9999H2.04932ZM21.9506 10.9999H16.4726C16.2936 7.73111 15.2425 4.69456 13.5479 2.11902C18.0123 2.81276 21.4998 6.45968 21.9506 10.9999ZM21.9506 12.9999C21.4998 17.5402 18.0123 21.1871 13.5479 21.8809C15.2425 19.3053 16.2936 16.2688 16.4726 12.9999H21.9506ZM9.53068 12.9999H14.4692C14.2976 15.7828 13.4146 18.3732 11.9999 20.5915C10.5852 18.3732 9.70229 15.7828 9.53068 12.9999ZM9.53068 10.9999C9.70229 8.21709 10.5852 5.62672 11.9999 3.40841C13.4146 5.62672 14.2976 8.21709 14.4692 10.9999H9.53068Z"/></svg>

<svg viewBox="0 0 24 24" xmlns="http://www.w3.org/2000/svg"><path fill="none" d="M0 0h24v24H0Z"/><path d="M2.05 13h5.477l0-.001c.17 3.16 1.18 6.23 2.92 8.88v0c-4.5-.71-7.95-4.36-8.41-8.88Zm0-2h0c.45-4.53 3.9-8.18 8.4-8.88l-.001 0C8.699 4.76 7.689 7.83 7.524 11H2.04Zm19.9 0h-5.477v0c-.18-3.17-1.19-6.24-2.93-8.88v0c4.49.7 7.94 4.35 8.4 8.88Zm0 2v0c-.46 4.52-3.91 8.17-8.41 8.88h-.001c1.74-2.65 2.75-5.72 2.92-8.88h5.47ZM9.53 13h4.94l-.001 0c-.17 2.69-1.02 5.31-2.47 7.59v0c-1.46-2.28-2.31-4.9-2.47-7.6Zm0-2l0-.001c.16-2.7 1.01-5.32 2.47-7.6v0c1.45 2.27 2.3 4.89 2.47 7.59H9.53Z"/></svg>
